storage/app/icons/phosphoricons/light/hospital-light.svg

<svg xmlns="http://www.w3.org/2000/svg" fill="currentColor" viewBox="0 0 256 256"><path d="M248 210h-10v-82a14 14 0 0 0-14-14h-58V48a14 14 0 0 0-14-14H56a14 14 0 0 0-14 14v162H32a6 6 0 0 0 0 12h216a6 6 0 0 0 0-12m-24-84a2 2 0 0 1 2 2v82h-60v-84ZM54 48a2 2 0 0 1 2-2h96a2 2 0 0 1 2 2v162h-20v-50a6 6 0 0 0-6-6H80a6 6 0 0 0-6 6v50H54Zm68 162H86v-44h36ZM74 96a6 6 0 0 1 6-6h18V72a6 6 0 0 1 12 0v18h18a6 6 0 0 1 0 12h-18v18a6 6 0 0 1-12 0v-18H80a6 6 0 0 1-6-6"/></svg>

<svg xmlns="http://www.w3.org/2000/svg" viewBox="0 0 256 256" fill="currentColor"><path d="M248,210H238V128a14,14,0,0,0-14-14H166V48a14,14,0,0,0-14-14H56A14,14,0,0,0,42,48V210H32a6,6,0,0,0,0,12H248a6,6,0,0,0,0-12Zm-24-84a2,2,0,0,1,2,2v82H166V126ZM54,48a2,2,0,0,1,2-2h96a2,2,0,0,1,2,2V210H134V160a6,6,0,0,0-6-6H80a6,6,0,0,0-6,6v50H54Zm68,162H86V166h36ZM74,96a6,6,0,0,1,6-6H98V72a6,6,0,0,1,12,0V90h18a6,6,0,0,1,0,12H110v18a6,6,0,0,1-12,0V102H80A6,6,0,0,1,74,96Z"/></svg>
